src/client/images/icons/email-icon.svg

<svg width="100%" height="100%" viewBox="0 0 22 19" fill="none" xmlns="http://www.w3.org/2000/svg">
<path d="M1 4.5L9.16492 10.2154C9.82609 10.6783 10.1567 10.9097 10.5163 10.9993C10.8339 11.0785 11.1661 11.0785 11.4837 10.9993C11.8433 10.9097 12.1739 10.6783 12.8351 10.2154L21 4.5M5.8 17.5H16.2C17.8802 17.5 18.7202 17.5 19.362 17.173C19.9265 16.8854 20.3854 16.4265 20.673 15.862C21 15.2202 21 14.3802 21 12.7V6.3C21 4.61984 21 3.77976 20.673 3.13803C20.3854 2.57354 19.9265 2.1146 19.362 1.82698C18.7202 1.5 17.8802 1.5 16.2 1.5H5.8C4.11984 1.5 3.27976 1.5 2.63803 1.82698C2.07354 2.1146 1.6146 2.57354 1.32698 3.13803C1 3.77976 1 4.61984 1 6.3V12.7C1 14.3802 1 15.2202 1.32698 15.862C1.6146 16.4265 2.07354 16.8854 2.63803 17.173C3.27976 17.5 4.11984 17.5 5.8 17.5Z" stroke-width="2" stroke-linecap="round" stroke-linejoin="round"/>
</svg>

<svg width="22" height="19" fill="none" xmlns="http://www.w3.org/2000/svg"><path d="m1 4.5 8.165 5.715c.661.463.992.695 1.351.784a2 2 0 0 0 .968 0c.36-.09.69-.32 1.351-.784L21 4.5m-15.2 13h10.4c1.68 0 2.52 0 3.162-.327a3 3 0 0 0 1.311-1.311C21 15.22 21 14.38 21 12.7V6.3c0-1.68 0-2.52-.327-3.162a3 3 0 0 0-1.311-1.311C18.72 1.5 17.88 1.5 16.2 1.5H5.8c-1.68 0-2.52 0-3.162.327a3 3 0 0 0-1.311 1.311C1 3.78 1 4.62 1 6.3v6.4c0 1.68 0 2.52.327 3.162a3 3 0 0 0 1.311 1.311c.642.327 1.482.327 3.162.327Z" stroke="#FAFAFA" stroke-width="2" stroke-linecap="round" stroke-linejoin="round"/></svg>
